src/assets/historical_balance_card.svg

<svg width="658" height="400" viewBox="0 0 658 400" fill="none" xmlns="http://www.w3.org/2000/svg">
<path d="M548 247.633C569.156 247.633 586.367 264.844 586.367 286C586.367 307.156 569.156 324.367 548 324.367C526.844 324.367 509.633 307.156 509.633 286C509.633 264.844 526.844 247.633 548 247.633ZM548 246C525.909 246 508 263.909 508 286C508 308.091 525.909 326 548 326C570.091 326 588 308.091 588 286C588 263.909 570.091 246 548 246Z" fill="url(#paint0_linear)"/>
<path d="M589.93 190.48C605.268 190.48 619.729 197.931 631.748 212.025C651.828 235.577 661.744 273.625 656.418 306.702C650.477 343.599 623.707 347.431 592.71 351.867C576.395 354.202 559.522 356.617 544.149 364.036C534.115 368.878 523.629 371.334 512.984 371.334C495.234 371.334 477.576 364.507 463.26 352.108C450.19 340.791 441.783 326.184 440.768 313.034C438.017 277.335 471.536 256.892 507.021 235.247C521.199 226.6 535.858 217.658 548.379 207.546C562.398 196.222 576.379 190.48 589.93 190.48ZM589.93 188.836C576.826 188.836 562.454 194.063 547.344 206.268C503.825 241.42 435.169 261.775 439.129 313.161C441.242 340.577 473.874 372.977 512.984 372.977C523.305 372.977 534.084 370.718 544.865 365.516C589.303 344.07 648.739 364.745 658.043 306.965C666.592 253.855 636.148 188.836 589.93 188.836Z" fill="url(#paint1_linear)"/>
<path d="M622.305 128.432C645.82 128.432 668.177 140.482 686.962 163.28C720.635 204.148 736.59 271.316 725.762 326.617C714.998 381.595 675.538 382.612 629.848 383.792C599.164 384.584 567.435 385.402 540.431 402.392C521.776 414.128 501.841 420.08 481.185 420.08C454.85 420.08 428.23 410.282 406.228 392.489C396.561 384.671 388.264 375.585 382.235 366.209C376.271 356.936 372.649 347.58 371.761 339.154C369.332 316.102 377.126 296.327 396.288 276.921C413.575 259.414 437.979 244.323 463.814 228.346C493.115 210.228 523.412 191.492 547.444 166.946C572.463 141.391 597.647 128.432 622.302 128.428H622.305V128.432ZM622.296 126.788C598.995 126.792 573.205 138.287 546.269 165.8C479.677 233.819 361.645 258.837 370.125 339.33C373.844 374.642 422.902 421.724 481.185 421.724C500.644 421.724 521.136 416.473 541.308 403.783C608.292 361.64 709.092 420.318 727.375 326.935C744.317 240.415 695.57 126.779 622.296 126.788Z" fill="url(#paint2_linear)"/>
<path d="M677.104 55.7874C709.287 55.7874 738.317 74.1193 761.053 108.803C784.609 144.734 801.085 198.212 806.262 255.526C811.315 311.485 805.264 364.1 789.66 399.88C763.513 459.836 717.011 488.981 647.496 488.981C599.186 488.981 547.39 475.271 501.692 463.174C498.722 462.389 495.779 461.609 492.867 460.841C479.626 457.353 466.404 454.118 453.616 450.989C363.809 429.021 286.249 410.049 275.51 321.687C269.599 272.979 280.673 238.822 310.364 214.196C337.72 191.505 378.334 178.247 425.362 162.897C480.628 144.856 543.266 124.409 603.31 82.8901C629.317 64.9082 654.144 55.789 677.099 55.7874H677.104ZM677.101 54.9658C655.042 54.9675 630.273 63.2486 602.845 82.2132C440.03 194.793 254.263 153.448 274.696 321.785C287.044 423.382 386.56 433.679 492.658 461.635C540.283 474.183 595.925 489.801 647.496 489.801C706.563 489.801 760.284 469.297 790.414 400.206C836.16 295.31 795.94 54.9625 677.101 54.9658Z" fill="url(#paint3_linear)"/>
<path d="M677.104 55.7874C709.287 55.7874 738.317 74.1193 761.053 108.803C784.609 144.734 801.085 198.212 806.262 255.526C811.315 311.485 805.264 364.1 789.66 399.88C763.513 459.836 717.011 488.981 647.496 488.981C599.186 488.981 547.39 475.271 501.692 463.174C498.722 462.389 495.779 461.609 492.867 460.841C479.626 457.353 466.404 454.118 453.616 450.989C363.809 429.021 286.249 410.049 275.51 321.687C269.599 272.979 280.673 238.822 310.364 214.196C337.72 191.505 378.334 178.247 425.362 162.897C480.628 144.856 543.266 124.409 603.31 82.8901C629.317 64.9082 654.144 55.789 677.099 55.7874H677.104ZM677.101 54.9658C655.042 54.9675 630.273 63.2486 602.845 82.2132C440.03 194.793 254.263 153.448 274.696 321.785C287.044 423.382 386.56 433.679 492.658 461.635C540.283 474.183 595.925 489.801 647.496 489.801C706.563 489.801 760.284 469.297 790.414 400.206C836.16 295.31 795.94 54.9625 677.101 54.9658Z" fill="url(#paint4_linear)"/>
<path d="M736.929 -23.5738C758.404 -23.5738 778.359 -16.99 796.24 -4.0063C812.856 8.06053 827.803 25.7122 840.665 48.4575C870.991 102.086 889.108 183.431 890.373 271.631C891.578 355.682 877.249 430.824 852.044 472.632C803.855 552.563 733.945 594.814 649.87 594.814C583.431 594.814 510.673 567.596 444.996 518.173C396.43 481.628 351.203 463.996 311.301 448.441C242.818 421.744 193.338 402.454 180.897 304.035C160.781 144.907 249.963 125.265 384.959 95.532C463.779 78.1711 561.874 56.5661 660.238 0.0504761C687.521 -15.6246 713.321 -23.5738 736.924 -23.5771H736.929V-23.5738ZM736.919 -25.2169C713.885 -25.2153 688.087 -17.8427 659.417 -1.37079C396.32 149.793 146.88 48.0631 179.264 304.243C198.996 460.337 310.813 419.26 444.006 519.488C507.911 567.576 580.565 596.458 649.868 596.458C727.685 596.458 801.271 560.033 853.452 473.482C925.608 353.792 902.115 -25.2301 736.919 -25.2169Z" fill="url(#paint5_linear)"/>
<path d="M826.974 -64.2172C938.553 -64.2172 985.319 9.74144 1004.9 71.7861C1017.67 112.247 1023.07 159.594 1020.96 212.512C1018.99 261.789 1010.27 314.58 995.752 365.177C965.754 469.717 914.13 555.725 857.657 595.249C794.799 639.243 730.708 660.629 661.725 660.629C566.268 660.629 476.511 619.716 389.709 580.151C367.998 570.255 345.548 560.021 323.785 550.836C266.78 526.778 215.007 493.48 174.064 454.542C132.34 414.861 104.124 371.351 92.4657 328.712C86.0412 305.213 84.6896 282.139 88.4469 260.135C92.4148 236.9 102.115 214.754 117.276 194.314C184.042 104.296 269.728 43.5759 386.935 3.22496C491.269 -32.6929 622.497 -53.3679 812.431 -63.8097C817.326 -64.0792 822.215 -64.2156 826.961 -64.2156H826.974V-64.2172ZM826.964 -65.8603C822.194 -65.8603 817.313 -65.7256 812.344 -65.4528C467.803 -46.5113 253.167 8.33659 115.957 193.333C23.9354 317.405 147.895 478.385 323.147 552.348C429.757 597.342 541.366 662.271 661.727 662.271C724.773 662.271 790.239 644.44 858.603 596.593C1035.66 472.678 1128.72 -65.8734 826.964 -65.8603Z" fill="url(#paint6_linear)"/>
<path d="M732.916 -161V-159.357C806.381 -159.357 882.25 -149.081 964.86 -127.941C1034.2 -110.196 1088.18 -75.939 1125.29 -26.1222C1158.85 18.9263 1178.07 75.6473 1182.42 142.465C1189.33 248.494 1157.39 374.101 1094.78 487.076C1032.14 600.129 947.709 684.365 863.141 718.183C803.956 741.852 747.298 753.357 689.931 753.357C637.037 753.357 583.432 743.29 526.054 722.582C475.302 704.265 427.956 680.138 382.169 656.806C320.502 625.382 262.258 595.699 202.612 583.6C140.305 570.961 79.7055 530.125 31.9796 468.616C-12.6796 411.062 -41.867 340.531 -48.0975 275.11C-52.1821 232.216 -46.1325 192.716 -30.5998 160.883C-13.3982 125.627 14.8223 99.7399 53.2741 83.9449C122.893 55.3454 187.039 22.2798 249.075 -9.69792C398.369 -86.6552 539.385 -159.344 732.865 -159.357L732.916 -161ZM732.864 -161C458.009 -160.982 288.727 -14.5549 52.6476 82.4251C-158.232 169.054 -16.4156 540.847 202.284 585.21C350.344 615.244 491.667 755 689.929 755C743.32 755 800.863 744.857 863.751 719.708C1143.63 607.784 1369.78 -26.0187 965.268 -129.533C879.103 -151.582 802.609 -161.005 732.864 -161Z" fill="url(#paint7_linear)"/>
<defs>
<linearGradient id="paint0_linear" x1="421" y1="32" x2="266" y2="361" gradientUnits="userSpaceOnUse">
<stop stop-color="#68DBF4" stop-opacity="0"/>
<stop offset="0.524862" stop-color="#68DBF4"/>
<stop offset="1" stop-color="#68DBF4" stop-opacity="0"/>
</linearGradient>
<linearGradient id="paint1_linear" x1="421" y1="32" x2="266" y2="361" gradientUnits="userSpaceOnUse">
<stop stop-color="#68DBF4" stop-opacity="0"/>
<stop offset="0.524862" stop-color="#68DBF4"/>
<stop offset="1" stop-color="#68DBF4" stop-opacity="0"/>
</linearGradient>
<linearGradient id="paint2_linear" x1="421" y1="32" x2="266" y2="361" gradientUnits="userSpaceOnUse">
<stop stop-color="#68DBF4" stop-opacity="0"/>
<stop offset="0.524862" stop-color="#68DBF4"/>
<stop offset="1" stop-color="#68DBF4" stop-opacity="0"/>
</linearGradient>
<linearGradient id="paint3_linear" x1="421" y1="32" x2="266" y2="361" gradientUnits="userSpaceOnUse">
<stop stop-color="#68DBF4" stop-opacity="0"/>
<stop offset="0.524862" stop-color="#68DBF4"/>
<stop offset="1" stop-color="#68DBF4" stop-opacity="0"/>
</linearGradient>
<linearGradient id="paint4_linear" x1="421" y1="32" x2="266" y2="361" gradientUnits="userSpaceOnUse">
<stop stop-color="#68DBF4" stop-opacity="0"/>
<stop offset="0.524862" stop-color="#68DBF4"/>
<stop offset="1" stop-color="#68DBF4" stop-opacity="0"/>
</linearGradient>
<linearGradient id="paint5_linear" x1="421" y1="32" x2="266" y2="361" gradientUnits="userSpaceOnUse">
<stop stop-color="#68DBF4" stop-opacity="0"/>
<stop offset="0.524862" stop-color="#68DBF4"/>
<stop offset="1" stop-color="#68DBF4" stop-opacity="0"/>
</linearGradient>
<linearGradient id="paint6_linear" x1="421" y1="32" x2="266" y2="361" gradientUnits="userSpaceOnUse">
<stop stop-color="#68DBF4" stop-opacity="0"/>
<stop offset="0.524862" stop-color="#68DBF4"/>
<stop offset="1" stop-color="#68DBF4" stop-opacity="0"/>
</linearGradient>
<linearGradient id="paint7_linear" x1="421" y1="32" x2="266" y2="361" gradientUnits="userSpaceOnUse">
<stop stop-color="#68DBF4" stop-opacity="0"/>
<stop offset="0.524862" stop-color="#68DBF4"/>
<stop offset="1" stop-color="#68DBF4" stop-opacity="0"/>
</linearGradient>
</defs>
</svg>

<svg width="658" height="400" fill="none" xmlns="http://www.w3.org/2000/svg"><path d="M548 247.633c21.156 0 38.367 17.211 38.367 38.367S569.156 324.367 548 324.367 509.633 307.156 509.633 286s17.211-38.367 38.367-38.367zm0-1.633c-22.091 0-40 17.909-40 40s17.909 40 40 40 40-17.909 40-40-17.909-40-40-40z" fill="url(#paint0_linear)"/><path d="M589.93 190.48c15.338 0 29.799 7.451 41.818 21.545 20.08 23.552 29.996 61.6 24.67 94.677-5.941 36.897-32.711 40.729-63.708 45.165-16.315 2.335-33.188 4.75-48.561 12.169-10.034 4.842-20.52 7.298-31.165 7.298-17.75 0-35.408-6.827-49.724-19.226-13.07-11.317-21.477-25.924-22.492-39.074-2.751-35.699 30.768-56.142 66.253-77.787 14.178-8.647 28.837-17.589 41.358-27.701 14.019-11.324 28-17.066 41.551-17.066zm0-1.644c-13.104 0-27.476 5.227-42.586 17.432-43.519 35.152-112.175 55.507-108.215 106.893 2.113 27.416 34.745 59.816 73.855 59.816 10.321 0 21.1-2.259 31.881-7.461 44.438-21.446 103.874-.771 113.178-58.551 8.549-53.11-21.895-118.129-68.113-118.129z" fill="url(#paint1_linear)"/><path d="M622.305 128.432c23.515 0 45.872 12.05 64.657 34.848 33.673 40.868 49.628 108.036 38.8 163.337-10.764 54.978-50.224 55.995-95.914 57.175-30.684.792-62.413 1.61-89.417 18.6-18.655 11.736-38.59 17.688-59.246 17.688-26.335 0-52.955-9.798-74.957-27.591-9.667-7.818-17.964-16.904-23.993-26.28-5.964-9.273-9.586-18.629-10.474-27.055-2.429-23.052 5.365-42.827 24.527-62.233 17.287-17.507 41.691-32.598 67.526-48.575 29.301-18.118 59.598-36.854 83.63-61.4 25.019-25.555 50.203-38.514 74.858-38.518h.003v.004zm-.009-1.644c-23.301.004-49.091 11.499-76.027 39.012-66.592 68.019-184.624 93.037-176.144 173.53 3.719 35.312 52.777 82.394 111.06 82.394 19.459 0 39.951-5.251 60.123-17.941 66.984-42.143 167.784 16.535 186.067-76.848 16.942-86.52-31.805-200.156-105.079-200.147z" fill="url(#paint2_linear)"/><path d="M677.104 55.787c32.183 0 61.213 18.332 83.949 53.016 23.556 35.931 40.032 89.409 45.209 146.723 5.053 55.959-.998 108.574-16.602 144.354-26.147 59.956-72.649 89.101-142.164 89.101-48.31 0-100.106-13.71-145.804-25.807-2.97-.785-5.913-1.565-8.825-2.333-13.241-3.488-26.463-6.723-39.251-9.852-89.807-21.968-167.367-40.94-178.106-129.302-5.911-48.708 5.163-82.865 34.854-107.491 27.356-22.691 67.97-35.949 114.998-51.299 55.266-18.041 117.904-38.488 177.948-80.007 26.007-17.982 50.834-27.101 73.789-27.103h.005zm-.003-.821c-22.059.002-46.828 8.283-74.256 27.247-162.815 112.58-348.582 71.235-328.149 239.572 12.348 101.597 111.864 111.894 217.962 139.85 47.625 12.548 103.267 28.166 154.838 28.166 59.067 0 112.788-20.504 142.918-89.595C836.16 295.31 795.94 54.962 677.101 54.966z" fill="url(#paint3_linear)"/><path d="M677.104 55.787c32.183 0 61.213 18.332 83.949 53.016 23.556 35.931 40.032 89.409 45.209 146.723 5.053 55.959-.998 108.574-16.602 144.354-26.147 59.956-72.649 89.101-142.164 89.101-48.31 0-100.106-13.71-145.804-25.807-2.97-.785-5.913-1.565-8.825-2.333-13.241-3.488-26.463-6.723-39.251-9.852-89.807-21.968-167.367-40.94-178.106-129.302-5.911-48.708 5.163-82.865 34.854-107.491 27.356-22.691 67.97-35.949 114.998-51.299 55.266-18.041 117.904-38.488 177.948-80.007 26.007-17.982 50.834-27.101 73.789-27.103h.005zm-.003-.821c-22.059.002-46.828 8.283-74.256 27.247-162.815 112.58-348.582 71.235-328.149 239.572 12.348 101.597 111.864 111.894 217.962 139.85 47.625 12.548 103.267 28.166 154.838 28.166 59.067 0 112.788-20.504 142.918-89.595C836.16 295.31 795.94 54.962 677.101 54.966z" fill="url(#paint4_linear)"/><path d="M736.929-23.574c21.475 0 41.43 6.584 59.311 19.568 16.616 12.067 31.563 29.718 44.425 52.464 30.326 53.628 48.443 134.973 49.708 223.173 1.205 84.051-13.124 159.193-38.329 201.001-48.189 79.931-118.099 122.182-202.174 122.182-66.439 0-139.197-27.218-204.874-76.641-48.566-36.545-93.793-54.177-133.695-69.732-68.483-26.697-117.963-45.987-130.404-144.406-20.116-159.128 69.066-178.77 204.062-208.503C463.779 78.172 561.874 56.566 660.238.05c27.283-15.675 53.083-23.624 76.686-23.627h.005v.003zm-.01-1.643c-23.034.002-48.832 7.374-77.502 23.846C396.32 149.793 146.88 48.063 179.264 304.243c19.732 156.094 131.549 115.017 264.742 215.245 63.905 48.088 136.559 76.97 205.862 76.97 77.817 0 151.403-36.425 203.584-122.976 72.156-119.69 48.663-498.712-116.533-498.699z" fill="url(#paint5_linear)"/><path d="M826.974-64.217c111.579 0 158.345 73.958 177.926 136.003 12.77 40.461 18.17 87.808 16.06 140.726-1.97 49.277-10.69 102.068-25.208 152.665-29.998 104.54-81.622 190.548-138.095 230.072-62.858 43.994-126.949 65.38-195.932 65.38-95.457 0-185.214-40.913-272.016-80.478-21.711-9.896-44.161-20.13-65.924-29.315-57.005-24.058-108.778-57.356-149.721-96.294-41.724-39.681-69.94-83.191-81.598-125.83-6.425-23.499-7.776-46.573-4.02-68.577 3.969-23.235 13.669-45.381 28.83-65.821C184.042 104.296 269.728 43.576 386.935 3.225 491.269-32.693 622.497-53.368 812.431-63.81c4.895-.27 9.784-.406 14.53-.406h.013v-.001zm-.01-1.643c-4.77 0-9.651.134-14.62.407C467.803-46.51 253.167 8.337 115.957 193.333c-92.022 124.072 31.938 285.052 207.19 359.015 106.61 44.994 218.219 109.923 338.58 109.923 63.046 0 128.512-17.831 196.876-65.678C1035.66 472.678 1128.72-65.873 826.964-65.86z" fill="url(#paint6_linear)"/><path d="M732.916-161v1.643c73.465 0 149.334 10.276 231.944 31.416 69.34 17.745 123.32 52.002 160.43 101.819 33.56 45.048 52.78 101.77 57.13 168.587 6.91 106.029-25.03 231.636-87.64 344.611-62.64 113.053-147.071 197.289-231.639 231.107-59.185 23.669-115.843 35.174-173.21 35.174-52.894 0-106.499-10.067-163.877-30.775-50.752-18.317-98.098-42.444-143.885-65.776-61.667-31.424-119.911-61.107-179.557-73.206-62.307-12.639-122.906-53.475-170.632-114.984-44.66-57.554-73.847-128.085-80.078-193.506-4.084-42.894 1.965-82.394 17.498-114.227 17.202-35.256 45.422-61.143 83.874-76.938 69.619-28.6 133.765-61.665 195.801-93.643 149.294-76.957 290.31-149.646 483.79-149.659l.051-1.643zm-.052 0c-274.855.018-444.137 146.445-680.216 243.425-210.88 86.629-69.064 458.422 149.636 502.785C350.344 615.244 491.667 755 689.929 755c53.391 0 110.934-10.143 173.822-35.292C1143.63 607.784 1369.78-26.019 965.268-129.533 879.103-151.582 802.609-161.005 732.864-161z" fill="url(#paint7_linear)"/><defs><linearGradient id="paint0_linear" x1="421" y1="32" x2="266" y2="361" gradientUnits="userSpaceOnUse"><stop stop-color="#68DBF4" stop-opacity="0"/><stop offset=".525" stop-color="#68DBF4"/><stop offset="1" stop-color="#68DBF4" stop-opacity="0"/></linearGradient><linearGradient id="paint1_linear" x1="421" y1="32" x2="266" y2="361" gradientUnits="userSpaceOnUse"><stop stop-color="#68DBF4" stop-opacity="0"/><stop offset=".525" stop-color="#68DBF4"/><stop offset="1" stop-color="#68DBF4" stop-opacity="0"/></linearGradient><linearGradient id="paint2_linear" x1="421" y1="32" x2="266" y2="361" gradientUnits="userSpaceOnUse"><stop stop-color="#68DBF4" stop-opacity="0"/><stop offset=".525" stop-color="#68DBF4"/><stop offset="1" stop-color="#68DBF4" stop-opacity="0"/></linearGradient><linearGradient id="paint3_linear" x1="421" y1="32" x2="266" y2="361" gradientUnits="userSpaceOnUse"><stop stop-color="#68DBF4" stop-opacity="0"/><stop offset=".525" stop-color="#68DBF4"/><stop offset="1" stop-color="#68DBF4" stop-opacity="0"/></linearGradient><linearGradient id="paint4_linear" x1="421" y1="32" x2="266" y2="361" gradientUnits="userSpaceOnUse"><stop stop-color="#68DBF4" stop-opacity="0"/><stop offset=".525" stop-color="#68DBF4"/><stop offset="1" stop-color="#68DBF4" stop-opacity="0"/></linearGradient><linearGradient id="paint5_linear" x1="421" y1="32" x2="266" y2="361" gradientUnits="userSpaceOnUse"><stop stop-color="#68DBF4" stop-opacity="0"/><stop offset=".525" stop-color="#68DBF4"/><stop offset="1" stop-color="#68DBF4" stop-opacity="0"/></linearGradient><linearGradient id="paint6_linear" x1="421" y1="32" x2="266" y2="361" gradientUnits="userSpaceOnUse"><stop stop-color="#68DBF4" stop-opacity="0"/><stop offset=".525" stop-color="#68DBF4"/><stop offset="1" stop-color="#68DBF4" stop-opacity="0"/></linearGradient><linearGradient id="paint7_linear" x1="421" y1="32" x2="266" y2="361" gradientUnits="userSpaceOnUse"><stop stop-color="#68DBF4" stop-opacity="0"/><stop offset=".525" stop-color="#68DBF4"/><stop offset="1" stop-color="#68DBF4" stop-opacity="0"/></linearGradient></defs></svg>
